X: 3283
T: The CANTY COUPLE
%R: jig
B: James Kerr "Merry Melodies" v.3 p.31 #283
Z: 2016 John Chambers <jc:trillian.mit.edu>
M: 6/8
L: 1/8
K: C
ue |\
gag ecG | A2c c2e | gag ecG | A2d d2e |\
gag ece | fga g2f | ede cAG | A2c c2 :|
|: e |\
gag ece | gag ece | faf ege | d2G G2e |\
gag ece | fga g2f | ede cAG | A2c c2 :|

%%sep 1 1 500
%%sep 1 1 500

